X:795
T:Pipe Slang, The
R:Reel
B:The Athole Collection
M:C|
L:1/8
K:A Minor
e|cA A/A/A ~A2 AB|cde^f gece|fd d/d/d d2 df|eE E/E/E A2A:|
c|A/A/A a2 gece|f2ed ecAc|A/A/A a2 gece|fdec A2Ac|A/A/A a2 gece|
f2ed ecAc|GEcE GEEc|D/D/D E^G A2A||

